Safari/img/services/02.svg

<svg width="37" height="48" viewBox="0 0 37 48" fill="none" xmlns="http://www.w3.org/2000/svg">
<path d="M17.1442 1.04203C16.4724 0.370126 15.5791 0 14.6289 0C13.9039 0 13.2119 0.215532 12.6262 0.616126C12.0405 0.215438 11.3485 0 10.6235 0C9.67335 0 8.78001 0.370126 8.1082 1.04194C7.43619 1.71375 7.06616 2.60701 7.06616 3.55735C7.06616 4.50751 7.43619 5.40095 8.1082 6.07286L12.1136 10.078C12.2551 10.2195 12.4408 10.2903 12.6263 10.2903C12.8118 10.2903 12.9975 10.2195 13.1391 10.0779L17.1442 6.07267C18.5308 4.68554 18.5307 2.42879 17.1442 1.04203ZM16.1185 5.04732L12.6264 8.53961L9.13382 5.04732C8.73585 4.64935 8.51666 4.12023 8.51666 3.55744C8.51666 2.99466 8.73566 2.46554 9.13373 2.06757C9.5316 1.6696 10.0607 1.45041 10.6235 1.45041C11.1863 1.45041 11.7154 1.6696 12.1136 2.06766C12.2495 2.2036 12.434 2.28 12.6264 2.28C12.8188 2.28 13.0032 2.2036 13.1391 2.06757C13.537 1.6696 14.0661 1.45041 14.6289 1.45041C15.1917 1.45041 15.7206 1.6696 16.1185 2.06757C16.9398 2.88901 16.9397 4.22579 16.1185 5.04732Z" fill="white"/>
<path d="M23.8439 8.91485C23.4395 8.51023 22.9018 8.28748 22.3296 8.28748C21.9748 8.28748 21.6332 8.37326 21.3285 8.53488C21.0236 8.37326 20.6819 8.28748 20.327 8.28748C19.755 8.28748 19.2171 8.51032 18.813 8.91466C18.4085 9.31901 18.1858 9.85676 18.1858 10.4287C18.1858 11.0007 18.4084 11.5384 18.813 11.9429L20.8159 13.9456C20.9519 14.0815 21.1364 14.1579 21.3288 14.1579C21.521 14.1579 21.7055 14.0815 21.8415 13.9455L23.8439 11.9428C24.6785 11.1079 24.6785 9.74942 23.8439 8.91485ZM22.818 10.9175L21.3286 12.4072L19.8385 10.9174C19.708 10.7869 19.6362 10.6134 19.6362 10.4288C19.6362 10.2442 19.708 10.0707 19.8386 9.9401C19.969 9.8097 20.1424 9.73779 20.3269 9.73779C20.5116 9.73779 20.6853 9.80979 20.8159 9.94038C20.9519 10.0763 21.1363 10.1527 21.3286 10.1527H21.3289C21.5212 10.1526 21.7056 10.0761 21.8416 9.9401C21.9719 9.8097 22.1451 9.73788 22.3295 9.73788C22.514 9.73788 22.6875 9.80979 22.818 9.94038C23.0874 10.2097 23.0872 10.648 22.818 10.9175Z" fill="white"/>
<path d="M35.5943 11.6803C35.4145 11.6803 31.1658 11.706 28.9285 13.9434L24.4325 18.4394L2.95126 13.0698C2.9461 13.0685 2.94076 13.0679 2.9356 13.0667C2.92182 13.0636 2.90804 13.0608 2.89417 13.0585C2.88367 13.0567 2.87317 13.0552 2.86276 13.054C2.85029 13.0525 2.83782 13.0514 2.82526 13.0506C2.81363 13.0497 2.80201 13.0491 2.79038 13.0489C2.77866 13.0487 2.76695 13.0488 2.75523 13.0491C2.74351 13.0495 2.73179 13.05 2.72007 13.0508C2.70798 13.0518 2.69588 13.0532 2.68379 13.0547C2.6731 13.0561 2.66241 13.0574 2.65201 13.0593C2.63841 13.0616 2.62501 13.0645 2.61151 13.0676C2.60288 13.0697 2.59435 13.0716 2.58582 13.0739C2.57063 13.0779 2.55573 13.0828 2.54082 13.0879C2.53426 13.0901 2.5276 13.0923 2.52104 13.0948C2.5052 13.1008 2.48963 13.1074 2.47407 13.1145C2.46854 13.117 2.46301 13.1195 2.45757 13.1222C2.44229 13.1296 2.42738 13.1377 2.41266 13.1463C2.40685 13.1496 2.40095 13.153 2.39532 13.1565C2.38201 13.1647 2.36898 13.1735 2.35613 13.1826C2.34882 13.1877 2.3417 13.193 2.33457 13.1983C2.32388 13.2066 2.31338 13.2151 2.30316 13.2239C2.29426 13.2316 2.28563 13.2395 2.2771 13.2475C2.27241 13.2519 2.26735 13.2559 2.26276 13.2605L0.211879 15.3111C0.20841 15.3146 0.205504 15.3185 0.202129 15.3219C0.192848 15.3316 0.183942 15.3414 0.175129 15.3516C0.166973 15.3611 0.159098 15.3707 0.151504 15.3805C0.148223 15.3847 0.144567 15.3886 0.141379 15.3929C0.13791 15.3976 0.135004 15.4026 0.131629 15.4075C0.12366 15.4189 0.115973 15.4304 0.10866 15.4422C0.103129 15.4511 0.0977852 15.4601 0.0927226 15.4692C0.0861601 15.4809 0.0798788 15.4927 0.0740662 15.5047C0.0691912 15.5147 0.0645039 15.5246 0.0600976 15.5347C0.0552226 15.546 0.0506289 15.5574 0.0463164 15.5689C0.0421914 15.5799 0.0381602 15.5912 0.0345976 15.6024C0.0311289 15.6132 0.0279413 15.624 0.025035 15.6349C0.0217538 15.647 0.0187536 15.6591 0.0161286 15.6712C0.0138786 15.6817 0.01191 15.6922 0.0101287 15.7027C0.0080662 15.7152 0.00619127 15.7277 0.00478502 15.7402C0.00356626 15.7509 0.00262893 15.7617 0.00187893 15.7724C0.00103517 15.7847 0.000378829 15.7969 9.75784e-05 15.8091C-8.9922e-05 15.8204 3.72524e-06 15.8316 0.000284976 15.843C0.000659976 15.8546 0.00112887 15.8661 0.00197262 15.8777C0.00281638 15.8897 0.00412871 15.9017 0.00553496 15.9136C0.00694122 15.9244 0.0083474 15.9351 0.0102224 15.9456C0.0122849 15.9582 0.0148163 15.9707 0.0177226 15.9831C0.0198788 15.9932 0.0223163 16.0031 0.025035 16.0131C0.02841 16.0257 0.0322536 16.0382 0.0363786 16.0506C0.0395661 16.0604 0.0428475 16.0701 0.0465975 16.0798C0.0510975 16.0917 0.0559728 16.1036 0.061129 16.1153C0.0654415 16.1254 0.070129 16.1353 0.0749102 16.1452C0.080254 16.1559 0.0859727 16.1666 0.091879 16.1772C0.0976915 16.1878 0.103879 16.1982 0.110254 16.2084C0.11616 16.2179 0.122348 16.2271 0.128629 16.2364C0.136223 16.2472 0.144098 16.2579 0.152254 16.2685C0.158629 16.2768 0.165286 16.2849 0.172129 16.293C0.181129 16.3035 0.190317 16.3138 0.199973 16.3238C0.204004 16.3281 0.207567 16.3327 0.211692 16.3368C0.215442 16.3405 0.21966 16.3437 0.22341 16.3474C0.232504 16.356 0.241785 16.3644 0.251348 16.3727C0.261379 16.3813 0.271598 16.3897 0.281911 16.3977C0.285848 16.4007 0.289411 16.4042 0.293442 16.4072L15.3419 27.5297L8.04939 34.8222L4.37261 33.5963C4.36539 33.5938 4.35817 33.5924 4.35095 33.5903C4.33745 33.5862 4.32385 33.5821 4.31007 33.5789C4.29826 33.5761 4.28645 33.5741 4.27454 33.5718C4.26357 33.5697 4.25279 33.5677 4.24182 33.5662C4.22804 33.5643 4.21435 33.5631 4.20067 33.562C4.1912 33.5612 4.18192 33.5604 4.17245 33.56C4.15801 33.5594 4.14367 33.5595 4.12923 33.5598C4.12014 33.56 4.11123 33.5601 4.10214 33.5606C4.08789 33.5614 4.07373 33.5628 4.05957 33.5645C4.0502 33.5656 4.04092 33.5667 4.03164 33.5681C4.01786 33.5702 4.00426 33.5729 3.99067 33.5759C3.9811 33.578 3.97173 33.58 3.96235 33.5823C3.94857 33.5859 3.93517 33.5901 3.92176 33.5944C3.91276 33.5973 3.90385 33.6 3.89495 33.6033C3.8806 33.6086 3.86645 33.6146 3.85248 33.6207C3.84489 33.624 3.83748 33.6271 3.82998 33.6307C3.81404 33.6384 3.79867 33.6468 3.7832 33.6556C3.77898 33.6581 3.77448 33.6599 3.77026 33.6626L3.76079 33.6682C3.75957 33.6689 3.75835 33.6696 3.75723 33.6703L0.358129 35.7098C0.356348 35.7108 0.35466 35.7118 0.352973 35.7129L0.351754 35.7136C0.349879 35.7147 0.348379 35.7161 0.346504 35.7172C0.328035 35.7285 0.309848 35.7405 0.292317 35.7536C0.286692 35.7577 0.281535 35.7624 0.276098 35.7667C0.262973 35.777 0.249942 35.7873 0.237567 35.7986C0.229129 35.8062 0.221535 35.8143 0.213473 35.8222C0.204848 35.8308 0.196036 35.8392 0.187786 35.8482C0.177004 35.8602 0.16716 35.8726 0.157316 35.8851C0.152629 35.8911 0.147473 35.8967 0.142973 35.9029C0.129941 35.9203 0.118035 35.9384 0.106691 35.9569C0.105566 35.9588 0.104254 35.9604 0.103129 35.9622C0.103035 35.9624 0.102942 35.9626 0.102848 35.9628C0.078004 36.0042 0.0574725 36.0477 0.0414412 36.0929C0.0345037 36.1123 0.0288787 36.1318 0.0238162 36.1516C0.0230662 36.1544 0.0220349 36.1571 0.0213786 36.1599C0.0168786 36.178 0.0135039 36.1962 0.0104102 36.2143C0.0095664 36.2192 0.00834736 36.224 0.0076911 36.229C0.00534735 36.2443 0.00422247 36.2598 0.00290997 36.2753C0.00225372 36.2834 0.00112883 36.2916 0.000753827 36.2998C0.000191326 36.3115 0.000472322 36.3231 0.000566072 36.3348C0.000472322 36.347 9.75755e-05 36.3591 0.000753827 36.3713C0.00112883 36.3791 0.00216002 36.3868 0.00281627 36.3945C0.00412877 36.4104 0.0053474 36.4261 0.00759741 36.442C0.00834741 36.4463 0.0093787 36.4506 0.0101287 36.4549C0.0132225 36.4737 0.0166911 36.4925 0.0213786 36.5111C0.0215661 36.512 0.0219414 36.5128 0.0221289 36.5137C0.0307539 36.5473 0.042379 36.5805 0.0559727 36.6133C0.060004 36.6231 0.0635663 36.633 0.0679726 36.6426C0.0691914 36.645 0.0706914 36.6475 0.0718164 36.6499C0.0812852 36.6694 0.0913165 36.6886 0.102379 36.7073C0.10266 36.7077 0.102754 36.7081 0.103035 36.7085C0.103879 36.7099 0.10491 36.711 0.105754 36.7123C0.119816 36.7356 0.135567 36.7579 0.152442 36.7797C0.15741 36.786 0.162566 36.7923 0.167723 36.7985C0.181504 36.8151 0.196036 36.831 0.211504 36.8465C0.217129 36.8522 0.222661 36.8582 0.228473 36.8638C0.248348 36.8824 0.26916 36.9002 0.291473 36.9167C0.298598 36.922 0.306192 36.9265 0.313504 36.9314C0.326161 36.9402 0.338442 36.9492 0.351848 36.9571L6.39245 40.5817L5.68164 41.2925C5.39842 41.5757 5.39842 42.0349 5.68164 42.318C5.8233 42.4596 6.00892 42.5305 6.19445 42.5305C6.37998 42.5305 6.56561 42.4597 6.70727 42.318L7.41808 41.6072L11.0388 47.6415C11.0398 47.6432 11.0409 47.6449 11.0419 47.6466L11.0426 47.6478C11.043 47.6485 11.0436 47.6491 11.044 47.6498C11.0586 47.674 11.0749 47.6971 11.0925 47.7196C11.0971 47.7256 11.1019 47.7314 11.1067 47.7372C11.1208 47.7543 11.1359 47.7708 11.1519 47.7868C11.1572 47.7921 11.1623 47.7976 11.1677 47.8028C11.1878 47.8216 11.2088 47.8396 11.2314 47.8563C11.2379 47.8612 11.2449 47.8652 11.2516 47.8699C11.2647 47.879 11.2776 47.8883 11.2914 47.8966C11.2943 47.8984 11.2975 47.8996 11.3005 47.9012C11.3182 47.9116 11.3365 47.9203 11.3548 47.929C11.3662 47.9343 11.3772 47.9403 11.3887 47.945C11.4048 47.9516 11.4214 47.9566 11.4379 47.9621C11.4519 47.9667 11.4657 47.972 11.4799 47.9758C11.4942 47.9795 11.5088 47.9817 11.5231 47.9846C11.5394 47.9878 11.5556 47.9919 11.5721 47.994C11.5917 47.9965 11.6116 47.997 11.6316 47.9979C11.6424 47.9984 11.6532 48.0001 11.6638 48.0001C11.664 48.0001 11.6643 48 11.6645 48C11.6647 48 11.665 48.0001 11.6651 48.0001C11.6759 48.0001 11.6867 47.9984 11.6974 47.9979C11.7173 47.997 11.7372 47.9965 11.7568 47.994C11.7733 47.9919 11.7897 47.9879 11.8061 47.9845C11.8204 47.9817 11.8348 47.9795 11.849 47.9759C11.8633 47.9721 11.8773 47.9667 11.8915 47.9619C11.9078 47.9566 11.9241 47.9516 11.9401 47.945C11.9518 47.9402 11.9632 47.9341 11.9748 47.9286C11.9928 47.9201 12.0108 47.9115 12.0281 47.9013C12.0312 47.8996 12.0344 47.8983 12.0376 47.8966C12.052 47.8879 12.0654 47.8783 12.0789 47.8688C12.085 47.8646 12.0913 47.8609 12.0972 47.8564C12.12 47.8396 12.1411 47.8215 12.1614 47.8024C12.1666 47.7975 12.1716 47.7921 12.1767 47.787C12.1927 47.7708 12.208 47.7542 12.2224 47.7368C12.2271 47.7311 12.2319 47.7254 12.2364 47.7195C12.2538 47.6971 12.2702 47.674 12.2848 47.6498C12.2853 47.6491 12.2859 47.6484 12.2863 47.6476L12.2872 47.646C12.2881 47.6445 12.2892 47.6429 12.2901 47.6413L14.3373 44.2289C14.3418 44.2214 14.3454 44.2136 14.3495 44.206C14.3557 44.1948 14.362 44.1837 14.3675 44.1721C14.3729 44.1609 14.3778 44.1495 14.3826 44.1379C14.3868 44.1278 14.3913 44.1178 14.3951 44.1075C14.3997 44.0951 14.4037 44.0825 14.4075 44.0699C14.4106 44.06 14.4137 44.0503 14.4164 44.0402C14.4197 44.0276 14.4224 44.0148 14.4252 44.0021C14.4273 43.9917 14.4295 43.9812 14.4312 43.9706C14.433 43.9585 14.4344 43.9464 14.4357 43.9342C14.437 43.9227 14.4382 43.911 14.4389 43.8994C14.4396 43.8882 14.4398 43.8769 14.4399 43.8657C14.4401 43.8537 14.4402 43.8411 14.4397 43.8285C14.4392 43.8179 14.4383 43.8072 14.4374 43.7966C14.4364 43.7838 14.4353 43.771 14.4336 43.7581C14.432 43.747 14.4298 43.7359 14.4279 43.7249C14.4256 43.7129 14.4236 43.701 14.4207 43.689C14.4177 43.6765 14.414 43.6642 14.4102 43.6518C14.4079 43.6435 14.4061 43.6351 14.4033 43.6269L13.1772 39.95L34.053 19.0743C34.054 19.0732 34.0552 19.0722 34.0563 19.0712C36.2937 16.8338 36.3194 12.5853 36.3194 12.4055C36.3195 12.005 35.9948 11.6803 35.5943 11.6803ZM1.83273 15.7414L2.99776 14.5764L23.2365 19.6353L16.3791 26.4926L1.83273 15.7414ZM33.0331 18.043C33.0323 18.0439 33.0314 18.0445 33.0305 18.0454L11.8347 39.2413C11.8323 39.2438 11.8303 39.2464 11.8279 39.2488C11.818 39.2591 11.8087 39.2697 11.7993 39.2804C11.7924 39.2884 11.7854 39.2963 11.7789 39.3044C11.7717 39.3135 11.7651 39.323 11.7583 39.3325C11.7507 39.343 11.7432 39.3534 11.7363 39.3642C11.7315 39.3716 11.7273 39.3794 11.7228 39.3869C11.7151 39.4 11.7076 39.4129 11.7008 39.4262C11.6975 39.4328 11.6947 39.4396 11.6914 39.4464C11.6847 39.4608 11.678 39.4753 11.6722 39.49C11.6693 39.4975 11.6669 39.5052 11.6642 39.5128C11.6593 39.5268 11.6542 39.5409 11.6501 39.5551C11.6473 39.5653 11.6452 39.5756 11.6426 39.5858C11.6398 39.5977 11.6367 39.6096 11.6344 39.6217C11.6321 39.6346 11.6306 39.6478 11.6289 39.661C11.6276 39.6706 11.6261 39.6801 11.6251 39.6898C11.6239 39.7043 11.6235 39.7187 11.6231 39.7333C11.6229 39.7421 11.6223 39.7508 11.6223 39.7595C11.6224 39.7734 11.6234 39.7872 11.6243 39.801C11.6249 39.811 11.6253 39.8209 11.6264 39.8308C11.6277 39.8427 11.6296 39.8546 11.6315 39.8664C11.6334 39.8787 11.6352 39.8909 11.6379 39.903C11.6398 39.9127 11.6424 39.9223 11.6448 39.9318C11.6484 39.9462 11.6522 39.9604 11.6567 39.9746C11.6576 39.9776 11.6582 39.9807 11.6592 39.9838L12.9215 43.7695L11.6639 45.8656L8.47464 40.5505L11.4929 37.5322C11.7764 37.2488 11.7764 36.7896 11.4932 36.5064C11.2099 36.2232 10.7508 36.2232 10.4676 36.5064L7.44939 39.5246L2.13423 36.3353L4.23039 35.0776L8.01611 36.34C8.01846 36.3408 8.02089 36.3409 8.02333 36.3418C8.05558 36.3522 8.08839 36.3602 8.12149 36.3659C8.12964 36.3673 8.13761 36.3683 8.14567 36.3694C8.17558 36.3735 8.20558 36.3762 8.23568 36.3766C8.23896 36.3767 8.24224 36.3775 8.24561 36.3775C8.24927 36.3775 8.25292 36.3766 8.25658 36.3766C8.28527 36.3762 8.31386 36.3737 8.34246 36.3699C8.35146 36.3687 8.36036 36.3675 8.36927 36.366C8.40011 36.3607 8.43068 36.3536 8.46077 36.3442C8.46686 36.3422 8.47277 36.34 8.47886 36.3378C8.50624 36.3285 8.53305 36.3176 8.55939 36.3049C8.56427 36.3026 8.56943 36.3005 8.5743 36.298C8.60271 36.2835 8.63018 36.2669 8.6568 36.2485C8.66374 36.2437 8.67049 36.2384 8.67733 36.2334C8.69814 36.2179 8.71811 36.2013 8.73752 36.1833C8.74343 36.1778 8.7498 36.1727 8.75552 36.167C8.75636 36.1662 8.7573 36.1655 8.75815 36.1647L29.954 14.9688C31.265 13.6577 33.6157 13.2816 34.8268 13.1738C34.7205 14.383 34.3466 16.7271 33.0331 18.043Z" fill="white"/>
<path d="M34.9485 45.1729C34.9478 45.1611 34.9466 45.1493 34.9453 45.1375C34.944 45.1265 34.9424 45.1156 34.9405 45.1047C34.9383 45.0909 34.9356 45.0773 34.9325 45.0637C34.9313 45.0584 34.9307 45.0532 34.9294 45.0478L30.2806 26.4503C30.1835 26.0617 29.7895 25.8256 29.4012 25.9227C29.0126 26.0198 28.7764 26.4135 28.8735 26.8021L33.4226 45.0012L32.2577 46.1662L22.8788 33.4767C22.6408 33.1546 22.1867 33.0866 21.8646 33.3246C21.5425 33.5626 21.4745 34.0167 21.7125 34.3388L31.5921 47.7055C31.5945 47.7088 31.5975 47.7118 31.6001 47.7151C31.6114 47.7298 31.6234 47.7439 31.6359 47.7579C31.6426 47.7653 31.649 47.7728 31.6558 47.7799C31.6582 47.7823 31.6601 47.7849 31.6625 47.7872C31.6729 47.7976 31.6839 47.8068 31.6949 47.8165C31.7018 47.8227 31.7085 47.8294 31.7157 47.8353C31.736 47.8519 31.7569 47.8673 31.7783 47.8813C31.7843 47.8852 31.7905 47.8885 31.7965 47.8921C31.8131 47.9023 31.83 47.9122 31.8473 47.921C31.8552 47.9249 31.8632 47.9284 31.8712 47.9321C31.8873 47.9396 31.9036 47.9466 31.9201 47.9528C31.9285 47.956 31.937 47.9588 31.9455 47.9617C31.9622 47.9672 31.9791 47.9721 31.9959 47.9764C32.0045 47.9786 32.0129 47.9808 32.0215 47.9827C32.0394 47.9865 32.0575 47.9895 32.0756 47.9921C32.0833 47.9932 32.0909 47.9946 32.0986 47.9953C32.1236 47.9981 32.1488 47.9996 32.1739 47.9997C32.1746 47.9997 32.1753 47.9998 32.176 47.9998C32.1769 47.9998 32.1777 47.9996 32.1785 47.9996C32.2107 47.9995 32.2429 47.9965 32.2748 47.9921C32.2825 47.991 32.29 47.9901 32.2977 47.9888C32.3295 47.9834 32.3611 47.976 32.3921 47.9663C32.3981 47.9644 32.4041 47.9621 32.41 47.96C32.4404 47.9496 32.4703 47.9374 32.4994 47.923C32.5021 47.9216 32.5047 47.9205 32.5075 47.9192C32.5387 47.9032 32.5687 47.8842 32.5977 47.8633C32.6005 47.8612 32.6036 47.8599 32.6065 47.8578C32.6107 47.8547 32.6143 47.8513 32.6183 47.8482C32.6286 47.8403 32.6386 47.8319 32.6484 47.8234C32.6581 47.8152 32.6675 47.8067 32.6766 47.798C32.6804 47.7943 32.6845 47.7912 32.6883 47.7874L34.739 45.7367C34.743 45.7326 34.7466 45.7281 34.7506 45.724C34.7597 45.7144 34.7684 45.7047 34.7769 45.6947C34.7845 45.6854 34.792 45.6762 34.7993 45.6669C34.8059 45.6582 34.8123 45.6495 34.8185 45.6406C34.8264 45.6295 34.8338 45.6183 34.8411 45.6069C34.8459 45.5989 34.8506 45.5909 34.8552 45.5829C34.8624 45.5703 34.8693 45.5577 34.8756 45.5449C34.8795 45.5368 34.8833 45.5287 34.8869 45.5204C34.8926 45.5076 34.8983 45.4947 34.9032 45.4815C34.9068 45.4722 34.9099 45.4628 34.9131 45.4534C34.9172 45.4412 34.9211 45.429 34.9245 45.4167C34.9276 45.4055 34.9301 45.3942 34.9328 45.383C34.9352 45.372 34.9376 45.3612 34.9395 45.3501C34.9418 45.3373 34.9434 45.3247 34.945 45.3118C34.9463 45.3017 34.9474 45.2916 34.9482 45.2815C34.9493 45.2682 34.9498 45.2549 34.9501 45.2416C34.9504 45.2312 34.9506 45.2209 34.9504 45.2105C34.9501 45.198 34.9494 45.1855 34.9485 45.1729Z" fill="white"/>
</svg>

<svg width="37" height="48" fill="none" xmlns="http://www.w3.org/2000/svg"><path d="M17.144 1.042A3.534 3.534 0 0014.63 0c-.725 0-1.417.216-2.003.616A3.532 3.532 0 0010.624 0c-.95 0-1.844.37-2.516 1.042a3.533 3.533 0 00-1.042 2.515c0 .95.37 1.844 1.042 2.516l4.006 4.005a.723.723 0 001.025 0l4.005-4.005a3.562 3.562 0 000-5.031zM16.12 5.047L12.626 8.54 9.134 5.047a2.093 2.093 0 01-.617-1.49c0-.562.219-1.091.617-1.49a2.093 2.093 0 011.49-.617c.562 0 1.091.22 1.49.618a.725.725 0 001.025 0 2.093 2.093 0 011.49-.618 2.11 2.11 0 011.49 3.597zm7.724 3.868a2.127 2.127 0 00-1.514-.628 2.13 2.13 0 00-1.002.248 2.132 2.132 0 00-1.001-.248c-.572 0-1.11.223-1.514.628a2.127 2.127 0 00-.627 1.514c0 .572.222 1.11.627 1.514l2.003 2.003a.726.726 0 001.026 0l2.002-2.003a2.144 2.144 0 000-3.028zm-1.026 2.003l-1.49 1.49-1.49-1.49a.686.686 0 01-.202-.49c0-.184.072-.357.203-.488a.687.687 0 01.977 0 .726.726 0 001.026 0 .686.686 0 01.976 0c.27.27.27.708 0 .978z" fill="#fff"/><path d="M35.594 11.68c-.18 0-4.428.026-6.666 2.263l-4.495 4.496L2.95 13.07l-.015-.002a.741.741 0 00-.252-.012l-.032.004a.709.709 0 00-.04.009l-.026.006a.653.653 0 00-.045.014l-.02.007a.77.77 0 00-.047.02l-.016.007a.655.655 0 00-.102.06l-.021.016a.8.8 0 00-.058.05l-.014.013-2.051 2.05c-.004.004-.006.008-.01.01a.787.787 0 00-.05.06l-.01.012-.01.014a.752.752 0 00-.116.264.745.745 0 00.03.409.718.718 0 00.154.244l.012.013.011.01a.882.882 0 00.059.05l.011.01 15.05 11.122-7.293 7.292-3.676-1.226-.022-.006a.637.637 0 00-.04-.011l-.036-.007a.621.621 0 00-.074-.01l-.029-.002h-.07a.674.674 0 00-.111.016l-.029.006a.77.77 0 00-.04.012l-.027.01a.794.794 0 00-.043.017l-.022.01a.786.786 0 00-.047.025l-.013.007-.01.005-.003.002-3.399 2.04a.09.09 0 00-.005.003H.352l-.005.004a.705.705 0 00-.055.037l-.016.013a.668.668 0 00-.038.032l-.025.023-.025.026a.733.733 0 00-.03.037l-.015.018a.7.7 0 00-.036.054l-.004.005a.721.721 0 00-.08.19l-.002.008a.745.745 0 00-.01.054l-.003.015a.34.34 0 00-.005.046L0 36.3v.07l.002.023a.39.39 0 00.005.048l.002.013a.684.684 0 00.011.056l.001.003c.009.033.02.066.034.1l.012.029.004.007.03.057.001.002.003.003a.708.708 0 00.106.134l.016.018a.71.71 0 00.063.053l.023.014c.012.01.024.018.038.026l6.04 3.625-.71.71a.725.725 0 101.025 1.026l.711-.71 3.62 6.034.004.005.002.003a.79.79 0 00.048.07l.015.017a.7.7 0 00.045.05l.016.016c.02.019.04.037.063.053l.02.014.04.027.01.004c.017.01.035.02.054.028l.034.016a.405.405 0 00.049.017l.042.014c.014.004.029.006.043.009.016.003.033.007.05.009l.059.004.032.002h.001l.032-.002.06-.004c.016-.002.033-.006.05-.01l.042-.008.043-.014a.459.459 0 00.048-.017l.035-.016a.653.653 0 00.053-.028l.01-.004.04-.028.02-.013a.697.697 0 00.063-.054l.016-.015a.772.772 0 00.045-.05l.014-.018a.722.722 0 00.049-.07l.001-.001.001-.002.003-.005 2.047-3.412.013-.023.018-.034a.656.656 0 00.015-.034l.012-.03a.636.636 0 00.013-.038l.008-.03.01-.038.005-.031a.882.882 0 00.003-.213l-.006-.033-.007-.036a.625.625 0 00-.01-.037l-.008-.025-1.226-3.677 20.876-20.876.003-.003c2.238-2.237 2.263-6.486 2.263-6.666 0-.4-.324-.725-.725-.725zM1.833 15.741l1.165-1.165 20.238 5.06-6.857 6.857L1.833 15.74zm31.2 2.302l-.002.002-21.196 21.196-.007.008-.029.031-.02.024-.02.029a.665.665 0 00-.023.031l-.013.023a.766.766 0 00-.022.04l-.01.02a.801.801 0 00-.019.043l-.008.023-.014.042-.007.03-.009.037-.005.039-.004.029a.787.787 0 00-.002.043v.027l.001.041.002.03a.71.71 0 00.006.035.22.22 0 00.006.037l.007.029a.715.715 0 00.012.043l.002.009 1.262 3.785-1.257 2.097-3.19-5.316 3.019-3.018a.725.725 0 10-1.025-1.026l-3.019 3.019-5.315-3.19 2.096-1.257 3.786 1.262a.715.715 0 00.105.026l.025.003c.03.005.06.007.09.008h.02a.729.729 0 00.205-.033l.018-.006a.713.713 0 00.08-.033l.015-.007a.724.724 0 00.083-.05l.02-.015a.726.726 0 00.06-.05l.019-.016.002-.002 21.196-21.196c1.311-1.311 3.662-1.687 4.873-1.795-.106 1.209-.48 3.553-1.794 4.869z" fill="#fff"/><path d="M34.949 45.173a.705.705 0 00-.017-.11l-.003-.015-4.648-18.598a.725.725 0 00-1.407.352l4.549 18.2-1.165 1.164-9.38-12.69a.725.725 0 00-1.166.863l9.88 13.367.008.01a.758.758 0 00.036.042l.02.022.007.007.032.03.02.018a.837.837 0 00.063.046l.019.011.05.029.024.011a.695.695 0 00.05.02l.024.01.05.014.027.007a.826.826 0 00.054.01l.023.002a.63.63 0 00.075.005h.004a.722.722 0 00.097-.008l.023-.003a.72.72 0 00.094-.023l.018-.006c.03-.01.06-.023.09-.037l.008-.004a.706.706 0 00.09-.056l.008-.005.012-.01a.65.65 0 00.059-.05l.011-.01 2.051-2.051.012-.013a.724.724 0 00.152-.242l.01-.029a.705.705 0 00.012-.036l.008-.034.007-.033a.706.706 0 00.01-.108v-.031a.795.795 0 00-.002-.038z" fill="#fff"/></svg>
